X:1
T:Title
%%score { 1 | 2 }
L:1/8
Q:1/4=84
M:2/4
K:Bb
V:1 treble nm="Grand Piano"
V:2 bass 
V:1
 [DF][DG] [DG][DF] | [DF][DB] [DB][DF] | Fc cF | [DF][Fd] [Fd]2 | [GB][^FA] [GB][EG] | %5
w: Hubert~P.~Main * * *|||||
 [DF][DB] [DB][DF] | [C=E][Ed] [Ed][Ec] | [=EG][EA] F2 | c=B cF | [DF][_DG] [=DF][DB] | AB c=B | %11
w: ||||||
 cF [Dd]2 | [^Fd][Fe] [Fd][Ac] | [GB][^FA] BG | FB dB |[M:5/8] Ac [DB]3 |] %16
w: |||||
V:2
 [B,,B,][B,,B,] [B,,B,][B,,B,] | [B,,B,][B,,F,] [B,,F,][B,,B,] | [F,A,E][F,A,E] [F,A,E][F,A,E] | %3
 [B,,B,][B,,B,] [B,,B,]2 | [E,B,][E,B,] [E,B,][E,B,] | [B,,B,][B,,F,] [B,,F,][B,,B,] | %6
 [C,B,][C,B,] [C,G,][C,G,] | [C,B,][C,C] [F,A,]2 | [F,A,E][F,_A,D] [F,=A,E][F,A,E] | %9
 [B,,B,][B,,=E,] [B,,F,][B,,F,] | [F,E][F,D] [F,A,E][F,_A,E] | [F,A,E][F,A,E] [B,,B,]2 | %12
 [D,A,][D,A,] [D,A,][^F,D] | [G,D][D,C] [G,B,D][E,B,E] | [F,B,D][F,B,D] [F,B,F][F,D] | %15
[M:5/8] [F,CE][F,A,E] [B,,B,]3 |] %16

